X:2917
T:Jackie Coleman's
O:england
M:4/4
L:1/8
Q:220
C:Trad Irish
K:D
AF F2 EFDE|F2 AF BFAF|E2 BE dEBE|ABde fedB|
AF F2 EFDE|F2 AF BFAF|E2 BE dEBE|ABde fd d2:|
fddc dfag|fdcd fagf|eA A2 eAfA|eA A2 efge|
fd d3 f ag|fd d3 f af|g2 gf gbag|faeg fd d2:|


